X: 23
T:Till Österland vill jag fara
M:C
L:1/4
C:anon.
O:Sweden
Z:Transcribed by Frank Nordberg - http://www.musicaviva.com
K:Am
E|A>BcB3/4A1/4|B2EE|ed3/4d1/4cc3/4A1/4|B2zB3/4B1/4|
w:Till Ös- ter land vil jag fa- ra, där bor all- ra kä- ras- ten min, bo
rt- om
ccdd|(e>d)cc3/4B1/4|AA3/4c1/4BE3/4^G1/4|A3|]
w:berg och dju- pa da-[ext] lar, allt un- der så grö- nan en lind.
w:Jag där vil byga en hydda,
W:Där marken står ständig så grön,
W:och träden äro prydda
W:med blommor som dofta så skönt.
w:Min sjel, du göre dig redo
W:den vida vägen att gå,
W:över berg och torra hedar,
W:förran natten faller oss på.
W:
W: From "Falaleiro" http://home.t-online.de/home/pheld/homepage.htm

